style-guide/assets/wds-icons-indent-right-tiny.svg

<svg xmlns="http://www.w3.org/2000/svg" xmlns:xlink="http://www.w3.org/1999/xlink" width="12" height="12" viewBox="0 0 12 12">
  <defs>
    <path id="indent-right-a" d="M1,1 C1.553,1 2,1.448 2,2 L2,10 C2,10.552 1.553,11 1,11 C0.447,11 0,10.552 0,10 L0,2 C0,1.448 0.447,1 1,1 Z M11.9248,5.6191 C11.9728,5.7351 11.9998,5.8631 11.9998,5.9971 L11.9998,6.0031 C11.9998,6.1371 11.9728,6.2651 11.9248,6.3811 C11.8758,6.4991 11.8038,6.6101 11.7068,6.7071 L8.7068,9.7071 C8.5118,9.9021 8.2558,10.0001 7.9998,10.0001 C7.7438,10.0001 7.4878,9.9021 7.2928,9.7071 C6.9028,9.3161 6.9028,8.6831 7.2928,8.2931 L8.5858,7.0001 L4.9998,7.0001 C4.4468,7.0001 3.9998,6.5521 3.9998,6.0001 C3.9998,5.4481 4.4468,5.0001 4.9998,5.0001 L8.5858,5.0001 L7.2928,3.7071 C6.9028,3.3161 6.9028,2.6831 7.2928,2.2931 C7.6838,1.9021 8.3168,1.9021 8.7068,2.2931 L11.7068,5.2931 C11.8038,5.3901 11.8758,5.5011 11.9248,5.6191 Z"/>
  </defs>
  <use fill-rule="evenodd" xlink:href="#indent-right-a"/>
</svg>

<svg xmlns="http://www.w3.org/2000/svg" xmlns:xlink="http://www.w3.org/1999/xlink" viewBox="0 0 12 12">
  <defs>
    <path id="indent-right-a" d="M1 1a1 1 0 0 1 1 1v8a1 1 0 1 1-2 0V2a1 1 0 0 1 1-1zm10.925 4.62a.988.988 0 0 1 .075.377v.006a.988.988 0 0 1-.293.704l-3 3a.997.997 0 0 1-1.414 0 1 1 0 0 1 0-1.414L8.586 7H5a1 1 0 1 1 0-2h3.586L7.293 3.707a1 1 0 0 1 1.414-1.414l3 3c.097.097.169.208.218.326z"/>
  </defs>
  <use fill-rule="evenodd" xlink:href="#indent-right-a"/>
</svg>
